X: 19800
T: Jerome Burke's
R: polka
M: 2/4
K: Dmajor
|:D2 FA|dA A2|BE EF|G2 FE|
DF- FA|dA AA|BA Bc|d2 d2:|
|:f2 f>f|af ed|e2 e>e|fe ce|
f2- ff|af ed|eA Bc|d2 d2:|

